X:1
T:Min Själ og Aand
T:Min Själ og Aand 
T:Psalmebog, 1569
T:Public Domain Courtesy of the Cyber Hymnal™
C:Psalmebog, 1569
Z:Public Domain
Z:Courtesy of the Cyber Hymnal™
%%score ( 1 2 ) ( 3 4 )
L:1/8
Q:1/4=110
M:4/4
K:C
V:1 treble 
V:2 treble 
V:3 bass 
V:4 bass 
V:1
 [CA]2 | [EA]2 [FA]2 [Gc]2 [FA]2 | [EG]2 F2 [B,E]2 [Ec]2 | [DB]2 [B,A]2 [CG]2 [CE]2 | %4
 [CF]2 [B,D]2 C2 [Cc]2 | [GB]2 [Gc]2 [Gd]2 [GB]2 | A4 !fermata!G2 [DG]2 | [DE]2 [CE]2 [CG]2 [DF]2 | %8
 [CE]2 [B,D]2 C2 [DG]2 | [CG]2 [FG]2 [EA]2 [EB]2 | [EA]2 [D^G]2 [CA]2 [Cc]2 | %11
 [DB]2 [DA]2 [DG]2 [CA]2 | F4 [CE]2 [Ec]2 | [EB]2 [CA]2 [CG]2 [CE]2 | [B,D]4 !fermata![B,E]2 |] %15
V:2
 x2 | x8 | x2 (DC) x4 | x8 | x4 C2 x2 | x8 | (G2 ^F2) G2 x2 | x8 | x4 C2 x2 | x8 | x8 | x8 | %12
 (C2 B,2) x4 | x8 | x6 |] %15
V:3
 [A,,E,]2 | [A,,C]2 [D,D]2 [C,E]2 C2 | [C,C]2 [D,A,]2 [E,^G,]2 [C,A,]2 | %3
 [D,F,]2 [D,F,]2 E,2 [C,G,]2 | [D,F,]2 [G,,G,]2 [C,E,]2 [E,G,]2 | [D,D]2 [C,E]2 [B,,D]2 [G,,D]2 | %6
 [D,D]4 !fermata![G,,B,]2 [B,,G,]2 | [C,G,]2 [E,G,]2 [A,,A,]2 [B,,G,]2 | %8
 [C,G,]2 [G,,G,]2 [C,E,]2 [F,B,]2 | [E,C]2 [D,B,]2 [C,C]2 [^G,,D]2 | %10
 [A,,C]2 [E,B,]2 [F,A,]2 [E,G,]2 | [D,F,]2 [C,F,]2 [B,,F,]2 [C,E,]2 | %12
 ([D,F,]2 [G,,G,]2) [C,G,]2 [A,,C]2 | [E,G,]2 F,2 [C,E,]2 [E,G,]2 | %14
 [G,B,]2 [F,A,]2 !fermata![E,^G,]2 |] %15
V:4
 x2 | x6 (F,,A,,) | x8 | x4 E,2 x2 | x8 | x8 | x8 | x8 | x8 | x8 | x8 | x8 | x8 | x2 F,2 x4 | x6 |] %15

